archdroid-icon-theme/Archdroid-DeepPurple/mimetypes/scalable/libreoffice-oasis-web-template.svg

<svg fill="#673AB7" height="48" viewBox="0 0 48 48" width="48" xmlns="http://www.w3.org/2000/svg"><path d="m28 2c-2.21 0-4 1.79-4 4v36c0 2.21 1.79 4 4 4h16c2.21 0 4-1.79 4-4v-36c0-2.21-1.79-4-4-4zm0 4h16v36h-16v-4h8v-4h-8v-4h8v-4h-8v-4h8v-4h-8v-4h8v-4h-8zm-24-2c-2.21 0-3.980469 1.79-3.980469 4l-.019531 32c0 2.21 1.770469 4 3.980469 4h18.574219c-.343496-.590391-.554688-1.267397-.554688-2v-3.011719c-1.672254 1.257889-3.745155 2.011719-6 2.011719-5.525 0-10-4.475-10-10s4.475-10 10-10c2.254845 0 4.327746.75383 6 2.011719v-5.011719h-4v-11l4 4v-5l-2-2zm15 19.583984v.416016c0 1.105-.895 2-2 2h-2v2c0 .55-.45 1-1 1h-2v2h6c.55 0 1 .45 1 1v3h1c.89 0 1.639531.584531 1.894531 1.394531.036864-.040254.069417-.084011.105469-.125v-10.541016c-.816856-.928487-1.835476-1.673555-3-2.144531zm-10.789063 5.625c-.134999.575-.210937 1.176016-.210937 1.791016 0 4.08 3.055 7.439688 7 7.929688v-1.929688c-1.105 0-2-.895-2-2v-1z" fill="#0369a3"/></svg>

<svg fill="#673AB7" height="48" version="1.1" viewBox="0 0 48 48" width="48" xmlns="http://www.w3.org/2000/svg"><path d="m28 2c-2.21 0-4 1.79-4 4l0 36c0 2.21 1.79 4 4 4l16 0c2.21 0 4-1.79 4-4L48 6C48 3.79 46.21 2 44 2L28 2Zm0 4l16 0 0 36-16 0 0-4 8 0 0-4-8 0 0-4 8 0 0-4-8 0 0-4 8 0 0-4-8 0 0-4 8 0 0-4-8 0 0-4zM4 4C1.79 4 .019531 5.79.019531 8L0 40c0 2.21 1.770469 4 3.980469 4L22.554688 44C22.211192 43.409609 22 42.732603 22 42l0-3.011719C20.327746 40.24617 18.254845 41 16 41c-5.525 0-10-4.475-10-10 0-5.525 4.475-10 10-10 2.254845 0 4.327746.75383 6 2.011719L22 18 18 18 18 7 22 11 22 6 20 4 4 4ZM19 23.583984L19 24c0 1.105-.895 2-2 2l-2 0 0 2c0 .55-.45 1-1 1l-2 0 0 2 6 0c .55 0 1 .45 1 1l0 3 1 0c .89 0 1.639531.584531 1.894531 1.394531.036864-.040254.069417-.084011.105469-.125l0-10.541016c-.816856-.928487-1.835476-1.673555-3-2.144531zm-10.789063 5.625C8.075938 29.783984 8 30.385 8 31c0 4.08 3.055 7.439688 7 7.929688L15 37c-1.105 0-2-.895-2-2l0-1-4.789063-4.791016z" fill="#0369a3"/></svg>
